; generated by PrusaSlicer 2.7.4+win64 on 2024-04-27 at 03:49:49 UTC


;
;

;
;

;
;

;
;
; 

; external perimeters extrusion width = 0.45mm
; perimeters extrusion width = 0.45mm
; infill extrusion width = 0.45mm
; solid infill extrusion width = 0.45mm
; top infill extrusion width = 0.45mm
; first layer extrusion width = 0.45mm

; external perimeters extrusion width = 0.45mm
; perimeters extrusion width = 0.45mm
; infill extrusion width = 0.45mm
; solid infill extrusion width = 0.45mm
; top infill extrusion width = 0.45mm
; first layer extrusion width = 0.45mm

M73 P0 R30
M201 X2500 Y2500 Z400 E5000 ; sets maximum accelerations, mm/sec^2
M203 X180 Y180 Z12 E80 ; sets maximum feedrates, mm / sec
M204 P2000 R1250 T2500 ; sets acceleration (P, T) and retract acceleration (R), mm/sec^2
M205 X8.00 Y8.00 Z2.00 E10.00 ; sets the jerk limits, mm/sec
M205 S0 T0 ; sets the minimum extruding and travel feed rate, mm/sec

M486 S0
M486 AOMiGaS-Rev-3-detector-top-v3.stl
M486 S-1
M486 S1
M486 AOMiGaS-Rev-3-detector-bottom-v2.stl
M486 S-1

;TYPE:Custom
M862.3 P "MINI" ; printer model check
G90 ; use absolute coordinates
M83 ; extruder relative mode
M104 S170 ; set extruder temp for bed leveling
M140 S95 ; set bed temp
M109 R170 ; wait for bed leveling temp
M190 S95 ; wait for bed temp
M204 T1250 ; set travel acceleration
G28 ; home all without mesh bed level
G29 ; mesh bed leveling 
M204 T2500 ; restore travel acceleration
M104 S260 ; set extruder temp
G92 E0
G1 Y-2 X179 F2400
G1 Z3 F720
M109 S260 ; wait for extruder temp

; intro line
G1 X170 F1000
G1 Z0.2 F720
G1 X110 E8 F900
G1 X40 E10 F700
G92 E0

M221 S100 ; set flow
G21 ; set units to millimeters
G90 ; use absolute coordinates
M83 ; use relative distances for extrusion
M900 K0.2 ; Filament gcode

M107
;LAYER_CHANGE
;Z:0.2
;HEIGHT:0.2
G1 E-2.7 F4200
M73 P0 R29
G1 Z.4 F720
G1 X97.488 Y71.175 F9000
G1 Z.2 F720
G1 E2.7 F2400
M204 P600
;TYPE:Skirt/Brim
;WIDTH:0.45
G1 F1200
G1 X98.604 Y69.678 E.0632
G1 X100.239 Y68.777 E.06319
G1 X101.5 Y68.593 E.04314
G1 X118.725 Y68.599 E.58305
G1 X142.701 Y69.847 E.81266
G1 X143.955 Y70.156 E.04372
M73 P1 R29
G1 X145.151 Y70.749 E.04519
G1 X146.154 Y71.559 E.04364
G1 X146.961 Y72.564 E.04363
G1 X147.353 Y73.281 E.02766
G1 X147.658 Y74.089 E.02923
G1 X147.903 Y75.602 E.05188
G1 X147.907 Y100.2 E.83261
G1 X147.838 Y100.975 E.02634
G1 X146.838 Y106.575 E.19255
G1 X146.128 Y108.301 E.06317
G1 X144.767 Y109.579 E.06319
G1 X142.707 Y110.202 E.07285
G1 X117.19 Y111.4 E.86467
G1 X102.985 Y111.406 E.48082
G1 X102.285 Y111.351 E.02377
G1 X101.434 Y111.171 E.02944
G1 X100.197 Y110.659 E.04532
G1 X99.477 Y110.191 E.02907
G1 X98.935 Y109.728 E.02413
G1 X98 Y108.574 E.05027
G1 X97.661 Y107.948 E.0241
G1 X97.342 Y107.109 E.03038
G1 X97.165 Y106.323 E.02727
G1 X97.095 Y105.527 E.02705
G1 X97.093 Y73 E1.101
G1 X97.476 Y71.234 E.06117
M204 P1000
G1 E-2.7 F4200
G1 X97.476 Y71.234 Z.4 F9000
G1 X103.746 Y68.194
G1 Z.2 F720
G1 E2.7 F2400
M204 P600
G1 F1200
G1 X104.964 Y68.391 E.04176
M204 P1000
G1 X104.964 Y68.391 F9000
G1 X106.057 Y68.798
M204 P600
G1 F1200
G1 X106.335 Y68.919 E.01026
G1 X107.321 Y69.689 E.04235
G1 X108.082 Y70.718 E.04332
G1 X111.914 Y70.718 E.12971
G1 X112.85 Y69.527 E.05127
G1 X113.938 Y68.801 E.04427
M204 P1000
G1 X113.938 Y68.801 F9000
G1 X114.963 Y68.394
M204 P600
G1 F1200
G1 X116.178 Y68.201 E.04164
G1 X117.693 Y68.194 E.05128
G1 X119.185 Y68.304 E.05064
G1 X119.752 Y68.448 E.0198
M204 P1000
G1 X119.752 Y68.448 F9000
G1 X120.804 Y68.911
M204 P600
G1 F1200
G1 X121.159 Y69.097 E.01357
G1 X122.165 Y70.022 E.04626
G1 X122.988 Y71.464 E.0562
G1 X123.125 Y71.909 E.01576
G1 X124.411 Y70.717 E.05935
G1 X125.778 Y69.961 E.05288
G1 X126.627 Y69.694 E.03013
G1 X127.53 Y69.545 E.03098
G1 X132.997 Y69.546 E.18505
M204 P1000
G1 E-2.7 F4200
G1 X132.997 Y69.546 Z.4 F9000
G1 X140.835 Y69.546
G1 Z.2 F720
G1 E2.7 F2400
M204 P600
G1 F1200
G1 X142.484 Y69.546 E.05582
G1 X143.389 Y69.696 E.03105
G1 X144.631 Y70.143 E.04468
G1 X145.548 Y70.687 E.03609
G1 X146.668 Y71.711 E.05137
G1 X147.223 Y72.466 E.03172
G1 X147.69 Y73.367 E.03435
G1 X148.023 Y74.398 E.03667
G1 X148.171 Y75.495 E.03747
G1 X148.181 Y100.475 E.84554
G1 X148.042 Y100.983 E.01783
M204 P1000
G1 X148.042 Y100.983 F9000
G1 X147.308 Y102.79
M204 P600
G1 F1200
G1 X147.181 Y103 E.00831
G1 X147.178 Y103.517 E.0175
M204 P1000
G1 X147.178 Y103.517 F9000
G1 X147.163 Y105.914
M204 P600
G1 F1200
G1 X147.161 Y106.22 E.01036
G1 X146.803 Y107.534 E.0461
G1 X146.373 Y108.241 E.02801
M204 P1000
G1 X146.373 Y108.241 F9000
G1 X146.218 Y108.497
M204 P600
G1 F1200
G1 X145.257 Y109.507 E.04719
G1 X144.952 Y109.685 E.01195
M204 P1000
G1 X144.952 Y109.685 F9000
G1 X144.769 Y109.791
M204 P600
G1 F1200
G1 X144.245 Y110.096 E.02052
G1 X142.764 Y110.481 E.0518
G1 X141.114 Y110.481 E.05585
M204 P1000
G1 E-2.7 F4200
G1 X141.114 Y110.481 Z.4 F9000
G1 X132.507 Y110.477
G1 Z.2 F720
G1 E2.7 F2400
M204 P600
G1 F1200
G1 X127.185 Y110.475 E.18014
G1 X125.815 Y110.123 E.04788
G1 X124.625 Y109.409 E.04697
G1 X123.775 Y108.533 E.04132
G1 X122.978 Y107.149 E.05406
G1 X122.436 Y108.368 E.04516
G1 X121.954 Y109.13 E.03052
G1 X121.364 Y109.818 E.03068
G1 X120.691 Y110.408 E.03029
G1 X119.521 Y111.087 E.04579
M204 P1000
G1 X119.521 Y111.087 F9000
G1 X118.103 Y111.561
M204 P600
G1 F1200
G1 X117.035 Y111.68 E.03637
G1 X102.639 Y111.664 E.48729
G1 X101.797 Y111.545 E.02878
G1 X100.991 Y111.316 E.02836
G1 X100.142 Y110.941 E.03142
G1 X99.399 Y110.475 E.02969
G1 X98.724 Y109.905 E.0299
G1 X98.143 Y109.258 E.02943
G1 X97.65 Y108.522 E.02999
G1 X97.233 Y107.641 E.03299
G1 X96.94 Y106.625 E.03579
G1 X96.821 Y105.558 E.03634
G1 X96.818 Y77.557 E.9478
G1 X96.642 Y75.648 E.06489
G1 X96.65 Y73.684 E.06648
G1 X96.835 Y72.124 E.05317
G1 X97.165 Y71.092 E.03667
G1 X97.77 Y70.104 E.03921
G1 X98.699 Y69.2 E.04388
G1 X99.204 Y68.878 E.02027
G1 X100.85 Y68.283 E.05924
G1 X103.746 Y68.194 E.09807
M204 P1000
G1 X103.746 Y68.194 F9000
G1 X104.934 Y68.798
M204 P600
G1 F1200
G1 X106.148 Y69.281 E.04423
G1 X107.017 Y69.961 E.03735
G1 X107.615 Y70.712 E.03249
G1 X107.834 Y71.125 E.01582
G1 X112.163 Y71.125 E.14653
G1 X112.365 Y70.743 E.01463
G1 X113.102 Y69.847 E.03927
G1 X114.308 Y69.034 E.04923
G1 X115.02 Y68.801 E.02536
M204 P1000
G1 E-2.7 F4200
G1 X115.02 Y68.801 Z.4 F9000
G1 X119.695 Y68.853
G1 Z.2 F720
G1 E2.7 F2400
M204 P600
G1 F1200
G1 X119.956 Y68.92 E.00912
G1 X120.946 Y69.444 E.03791
G1 X121.827 Y70.251 E.04044
G1 X122.619 Y71.639 E.05409
G1 X122.865 Y73.047 E.04838
G1 X123.591 Y72.032 E.04224
G1 X124.631 Y71.061 E.04816
G1 X125.956 Y70.328 E.05126
G1 X126.734 Y70.087 E.02757
G1 X127.547 Y69.952 E.0279
G1 X140.778 Y69.951 E.44785
M204 P1000
G1 E-2.7 F4200
M73 P2 R29
G1 X140.778 Y69.951 Z.4 F9000
G1 X147.637 Y100.937
G1 Z.2 F720
G1 E2.7 F2400
M204 P600
G1 F1200
G1 X147.362 Y101.923 E.03465
G1 X146.774 Y102.829 E.03656
G1 X146.762 Y105.843 E.10202
M204 P1000
G1 X146.762 Y105.843 F9000
G1 X145.998 Y108.082
M204 P600
G1 F1200
G1 X145.913 Y108.224 E.0056
M204 P1000
G1 X145.913 Y108.224 F9000
G1 X144.694 Y109.369
M204 P600
G1 F1200
G1 X144.621 Y109.411 E.00285
M204 P1000
G1 E-2.7 F4200
G1 X144.621 Y109.411 Z.4 F9000
G1 X141.105 Y110.074
G1 Z.2 F720
G1 E2.7 F2400
M204 P600
G1 F1200
G1 X127.211 Y110.068 E.4703
G1 X125.947 Y109.737 E.04423
G1 X124.86 Y109.076 E.04306
G1 X124.087 Y108.269 E.03783
G1 X123.576 Y107.385 E.03456
G1 X123.257 Y106.261 E.03955
G1 X123.232 Y102.8 E.11715
G1 X122.765 Y102.248 E.02447
G1 X122.761 Y105.776 E.11942
G1 X122.649 Y106.605 E.02832
G1 X122.429 Y107.385 E.02743
G1 X122.084 Y108.163 E.02881
G1 X121.618 Y108.9 E.02952
G1 X121.084 Y109.522 E.02775
G1 X120.456 Y110.075 E.02832
G1 X119.745 Y110.539 E.02874
G1 X118.911 Y110.918 E.03101
G1 X118.039 Y111.156 E.0306
M204 P1000
G1 X118.039 Y111.156 F9000
G1 X117.931 Y110.766
M204 P600
G1 F1200
G1 X117.907 Y110.773 E.00085
G1 X117.015 Y110.866 E.03036
G1 X102.696 Y110.852 E.48468
G1 X101.966 Y110.748 E.02496
G1 X101.242 Y110.541 E.02549
G1 X100.502 Y110.21 E.02744
G1 X99.859 Y109.803 E.02576
G1 X99.273 Y109.304 E.02605
G1 X98.771 Y108.738 E.02561
G1 X98.345 Y108.097 E.02605
G1 X97.984 Y107.326 E.02882
G1 X97.733 Y106.436 E.0313
G1 X97.634 Y105.514 E.03139
G1 X97.632 Y77.545 E.94672
G1 X97.457 Y75.624 E.06529
G1 X97.463 Y73.734 E.06397
G1 X97.639 Y72.257 E.05035
G1 X97.886 Y71.473 E.02782
G1 X98.406 Y70.612 E.03405
G1 X99.202 Y69.84 E.03753
G1 X99.564 Y69.609 E.01454
G1 X100.96 Y69.092 E.05039
G1 X103.712 Y69.008 E.0932
G1 X105.024 Y69.225 E.04501
G1 X105.918 Y69.618 E.03306
G1 X106.714 Y70.234 E.03407
G1 X107.284 Y70.949 E.03095
G1 X107.585 Y71.532 E.02221
G1 X112.414 Y71.532 E.16346
G1 X112.695 Y70.984 E.02085
G1 X113.398 Y70.129 E.03747
G1 X114.463 Y69.412 E.04346
G1 X115.207 Y69.165 E.02654
G1 X116.239 Y69.013 E.03531
G1 X117.665 Y69.008 E.04827
G1 X119.055 Y69.107 E.04717
G1 X119.788 Y69.292 E.02559
G1 X120.731 Y69.791 E.03611
G1 X121.527 Y70.527 E.0367
G1 X122.25 Y71.813 E.04994
G1 X122.363 Y72.263 E.0157
G1 X122.545 Y74.167 E.06474
G1 X122.887 Y74.221 E.01172
G1 X123.08 Y73.634 E.02092
G1 X123.432 Y72.955 E.02589
G1 X123.886 Y72.314 E.02659
G1 X124.851 Y71.404 E.0449
G1 X126.098 Y70.71 E.04831
G1 X126.816 Y70.486 E.02546
G1 X127.565 Y70.359 E.02571
G1 X142.385 Y70.355 E.50164
G1 X143.18 Y70.484 E.02726
G1 X144.289 Y70.882 E.03988
G1 X145.105 Y71.37 E.03218
G1 X145.605 Y71.78 E.02189
G1 X146.548 Y72.922 E.05013
G1 X146.95 Y73.708 E.02988
G1 X147.235 Y74.609 E.03199
G1 X147.36 Y75.574 E.03294
G1 X147.367 Y100.418 E.84094
G1 X146.979 Y101.784 E.04807
G1 X146.367 Y102.669 E.03642
G1 X146.361 Y106.064 E.11492
G1 X146.074 Y107.168 E.03861
G1 X145.501 Y108.132 E.03796
G1 X144.726 Y108.888 E.03665
G1 X143.889 Y109.362 E.03256
G1 X142.713 Y109.667 E.04112
G1 X127.287 Y109.667 E.52215
G1 X126.132 Y109.374 E.04033
G1 X125.095 Y108.742 E.04111
G1 X124.4 Y108.008 E.03422
G1 X123.942 Y107.205 E.03129
G1 X123.664 Y106.231 E.03429
G1 X123.638 Y102.649 E.12125
G1 X123.238 Y102.177 E.02094
G1 X122.869 Y101.429 E.02823
G1 X122.719 Y100.78 E.02255
G1 X122.358 Y100.821 E.0123
G1 X122.356 Y105.736 E.16637
G1 X122.253 Y106.508 E.02636
G1 X122.041 Y107.26 E.02645
G1 X121.718 Y107.983 E.0268
G1 X121.299 Y108.646 E.02655
G1 X120.784 Y109.246 E.02676
G1 X120.199 Y109.76 E.02636
G1 X119.561 Y110.175 E.02576
G1 X118.786 Y110.531 E.02887
G1 X117.989 Y110.751 E.02799
M204 P1000
G1 X117.989 Y110.751 F9000
G1 X117.88 Y110.361
M204 P600
G1 F1200
G1 X117.847 Y110.37 E.00116
G1 X117.004 Y110.459 E.02869
G1 X102.712 Y110.445 E.48377
G1 X102.039 Y110.347 E.02302
G1 X101.369 Y110.154 E.0236
G1 X100.683 Y109.845 E.02547
G1 X99.549 Y109.004 E.04779
G1 X98.693 Y107.886 E.04766
G1 X98.361 Y107.17 E.02671
G1 X98.129 Y106.344 E.02904
G1 X98.04 Y105.483 E.0293
G1 X98.04 Y77.539 E.94587
G1 X97.864 Y75.612 E.0655
G1 X97.869 Y73.77 E.06235
G1 X98.041 Y72.324 E.04929
G1 X98.248 Y71.66 E.02354
G1 X98.711 Y70.884 E.03059
G1 X99.443 Y70.169 E.03464
G1 X99.73 Y69.981 E.01161
G1 X101.016 Y69.497 E.04651
G1 X102.359 Y69.414 E.04555
G1 X103.695 Y69.416 E.04522
G1 X104.932 Y69.622 E.04245
G1 X105.691 Y69.956 E.02807
G1 X106.412 Y70.508 E.03074
G1 X106.952 Y71.186 E.02934
G1 X107.334 Y71.939 E.02858
G1 X112.667 Y71.939 E.18052
G1 X113.026 Y71.221 E.02717
G1 X113.651 Y70.449 E.03362
G1 X114.666 Y69.766 E.04141
G1 X115.284 Y69.565 E.022
G1 X116.255 Y69.42 E.03323
G1 X117.659 Y69.415 E.04752
G1 X119.007 Y69.512 E.04575
G1 X119.663 Y69.68 E.02292
G1 X120.477 Y70.11 E.03116
G1 X121.19 Y70.758 E.03261
G1 X121.862 Y71.941 E.04605
G1 X122.138 Y73.879 E.06626
G1 X122.132 Y75.671 E.06066
G1 X121.96 Y77.539 E.0635
G1 X121.949 Y105.722 E.95396
G1 X121.663 Y107.109 E.04794
M73 P3 R29
G1 X121.366 Y107.779 E.02481
G1 X120.963 Y108.416 E.02551
G1 X119.964 Y109.427 E.04811
G1 X119.351 Y109.826 E.02476
G1 X118.661 Y110.143 E.0257
G1 X117.938 Y110.345 E.02541
M204 P1000
G1 X117.938 Y110.345 F9000
G1 X117.828 Y109.955
M204 P600
G1 F1200
G1 X117.786 Y109.967 E.00148
G1 X116.994 Y110.052 E.02696
G1 X102.727 Y110.038 E.48292
G1 X101.522 Y109.776 E.04174
G1 X100.888 Y109.494 E.02349
G1 X100.322 Y109.132 E.02274
G1 X99.401 Y108.222 E.04383
G1 X98.748 Y107.043 E.04562
G1 X98.532 Y106.283 E.02674
G1 X98.447 Y105.472 E.0276
G1 X98.447 Y77.533 E.9457
G1 X98.271 Y75.599 E.06573
G1 X98.276 Y73.783 E.06147
G1 X98.443 Y72.39 E.04749
G1 X98.611 Y71.847 E.01924
G1 X99.046 Y71.116 E.02879
G1 X99.931 Y70.336 E.03993
G1 X101.072 Y69.901 E.04133
G1 X103.677 Y69.823 E.08822
G1 X104.839 Y70.019 E.03989
G1 X105.465 Y70.295 E.02316
G1 X106.11 Y70.782 E.02736
G1 X106.62 Y71.423 E.02773
G1 X106.891 Y71.963 E.02045
G1 X106.989 Y72.346 E.01338
G1 X113.011 Y72.346 E.20384
G1 X113.357 Y71.459 E.03223
G1 X113.948 Y70.729 E.03179
G1 X114.82 Y70.144 E.03554
G1 X115.363 Y69.965 E.01935
G1 X116.272 Y69.827 E.03112
G1 X117.653 Y69.822 E.04675
G1 X118.96 Y69.917 E.04436
G1 X119.498 Y70.053 E.01878
G1 X120.227 Y70.432 E.02781
G1 X120.854 Y70.99 E.02841
G1 X121.476 Y72.07 E.04219
G1 X121.731 Y73.89 E.06221
G1 X121.725 Y75.657 E.05981
G1 X121.553 Y77.533 E.06377
G1 X121.544 Y105.683 E.95284
G1 X121.284 Y106.959 E.04408
G1 X121.013 Y107.575 E.02278
G1 X120.643 Y108.164 E.02354
G1 X119.728 Y109.095 E.04419
G1 X119.166 Y109.463 E.02274
G1 X118.534 Y109.756 E.02358
G1 X117.886 Y109.939 E.02279
M204 P1000
G1 X117.886 Y109.939 F9000
G1 X117.775 Y109.547
M204 P600
G1 F1200
G1 X117.693 Y109.571 E.00289
G1 X116.983 Y109.645 E.02416
G1 X102.771 Y109.633 E.48106
G1 X101.673 Y109.398 E.03801
G1 X100.575 Y108.813 E.04211
G1 X99.732 Y107.985 E.04
G1 X99.135 Y106.916 E.04144
G1 X98.929 Y106.19 E.02554
G1 X98.854 Y105.462 E.02477
G1 X98.854 Y77.527 E.94557
G1 X98.678 Y75.586 E.06597
G1 X98.683 Y73.796 E.06059
G1 X98.845 Y72.457 E.04565
G1 X98.973 Y72.034 E.01496
G1 X99.381 Y71.349 E.02699
G1 X100.098 Y70.707 E.03258
G1 X101.13 Y70.305 E.03749
G1 X102.396 Y70.227 E.04293
G1 X103.659 Y70.23 E.04275
G1 X104.745 Y70.416 E.0373
G1 X105.241 Y70.636 E.01837
G1 X105.808 Y71.057 E.0239
G1 X106.287 Y71.659 E.02604
G1 X106.514 Y72.12 E.01739
G1 X106.663 Y72.753 E.02201
G1 X113.337 Y72.753 E.22591
G1 X113.486 Y72.12 E.02201
G1 X113.713 Y71.659 E.01739
G1 X114.203 Y71.047 E.02654
G1 X114.977 Y70.52 E.0317
G1 X115.442 Y70.364 E.0166
G1 X116.289 Y70.234 E.02901
G1 X117.631 Y70.228 E.04543
G1 X118.914 Y70.322 E.04354
G1 X119.332 Y70.425 E.01457
G1 X120.015 Y70.781 E.02607
G1 X120.557 Y71.27 E.02471
G1 X121.089 Y72.201 E.0363
G1 X121.323 Y73.901 E.05809
G1 X121.318 Y75.642 E.05893
G1 X121.146 Y77.527 E.06407
G1 X121.138 Y105.645 E.95176
G1 X120.905 Y106.81 E.04021
G1 X120.323 Y107.912 E.04218
G1 X119.49 Y108.764 E.04033
G1 X118.407 Y109.369 E.04199
G1 X117.833 Y109.531 E.02019
M204 P1000
G1 X117.833 Y109.531 F9000
G1 X117.721 Y109.142
M204 P600
G1 F1200
G1 X117.631 Y109.168 E.00317
G1 X116.973 Y109.238 E.0224
G1 X102.814 Y109.228 E.47927
G1 X101.823 Y109.02 E.03428
G1 X100.827 Y108.493 E.03814
G1 X100.063 Y107.747 E.03614
G1 X99.521 Y106.787 E.03732
G1 X99.332 Y106.129 E.02317
G1 X99.261 Y105.451 E.02307
G1 X99.261 Y77.52 E.94543
G1 X99.085 Y75.573 E.06617
G1 X99.09 Y73.81 E.05968
G1 X99.336 Y72.22 E.05446
G1 X99.715 Y71.583 E.02509
G1 X100.238 Y71.097 E.02417
G1 X101.188 Y70.71 E.03472
G1 X103.641 Y70.637 E.08307
G1 X104.607 Y70.8 E.03316
G1 X105.018 Y70.977 E.01515
G1 X105.544 Y71.368 E.02218
G1 X105.934 Y71.861 E.02128
G1 X106.124 Y72.237 E.01426
G1 X106.289 Y73.16 E.03174
G1 X113.711 Y73.16 E.25123
G1 X113.876 Y72.237 E.03174
G1 X114.066 Y71.861 E.01426
G1 X114.461 Y71.364 E.02149
G1 X115.137 Y70.896 E.02783
G1 X116.307 Y70.641 E.04053
G1 X117.609 Y70.635 E.04407
G1 X119.17 Y70.799 E.05313
G1 X119.763 Y71.101 E.02253
G1 X120.259 Y71.55 E.02265
G1 X120.704 Y72.333 E.03048
G1 X120.916 Y73.912 E.05393
G1 X120.911 Y75.627 E.05805
G1 X120.739 Y77.521 E.06437
G1 X120.733 Y105.607 E.95068
G1 X120.525 Y106.663 E.03643
M73 P4 R29
G1 X120.001 Y107.662 E.03818
G1 X119.252 Y108.434 E.03641
G1 X118.278 Y108.982 E.03783
G1 X117.779 Y109.126 E.01758
M204 P1000
G1 X117.779 Y109.126 F9000
G1 X117.665 Y108.737
M204 P600
G1 F1200
G1 X117.569 Y108.765 E.00338
G1 X116.962 Y108.831 E.02067
G1 X102.855 Y108.823 E.47751
