; generated by PrusaSlicer 2.8.0+win64


; printer_model = MINIIS
; filament_type = PETG
; nozzle_diameter = 0.4
; bed_temperature = 75
; brim_width = 0
; fill_density = 100%
; layer_height = 0.15
; temperature = 230
; ironing = 0
; support_material = 1
; extruder_colour = ""
; max_layer_z = 13.85
; objects_info = {"objects":[{"name":"OMiGaS-top-shell-v2.stl","polygon":[[63.600,70.800],[65.000,70.800],[65.000,78.000],[64.400,78.600],[64.400,82.200],[65.000,83.239],[65.000,97.800],[115.000,97.800],[115.000,83.239],[115.600,82.200],[115.600,78.600],[115.000,78.000],[115.000,70.800],[116.400,70.800],[116.400,66.000],[135.000,66.000],[135.729,66.090],[136.444,66.370],[137.101,66.859],[137.573,67.458],[137.872,68.135],[137.998,68.903],[138.000,111.000],[137.912,111.721],[137.630,112.444],[137.141,113.101],[136.549,113.569],[135.865,113.872],[135.000,114.000],[45.000,114.000],[44.271,113.910],[43.556,113.630],[42.899,113.141],[42.427,112.542],[42.128,111.865],[42.002,111.097],[42.000,69.000],[42.078,68.321],[42.288,67.717],[42.765,66.999],[43.333,66.506],[44.004,66.170],[44.807,66.006],[63.600,66.000]]}]}
; filament used [mm] = 3692.64
; filament used [g] = 11.28
; filament cost = 1.34
; filament used [cm3] = 8.88
; total filament used for wipe tower [g] = 0.00
; estimated printing time (normal mode) = 2h 0m 11s
; estimated printing time (silent mode) = 2h 1m 30s

;
;

;
;

;
;

;
;

M73 P0 R120
M73 Q0 S121
M201 X4000 Y4000 Z400 E5000
M203 X400 Y400 Z12 E80
M204 P4000 R1250 T4000
M205 X8.00 Y8.00 Z2.00 E10.00
M205 S0 T0
M486 S0
M486 AOMiGaS-top-shell-v2.stl
M486 S-1
;TYPE:Custom
M862.3 P "MINI"
M862.1 P0.4
M862.5 P2
M862.6 P"Input shaper"
M115 U6.0.0+14794
G90
M83
M104 S170
M140 S80
M109 R170
M190 S80
M569 S1 X Y
M204 T1250
G28
G29
M104 S230
G92 E0
G1 X0 Y-2 Z3 F2400
M109 S230
; intro line
G1 X10 Z0.2 F1000
G1 X70 E8 F900
G1 X140 E10 F700
G92 E0
M569 S0 X Y
M204 T4000
M572 W0.06
M221 S100
G21
G90
M83
M900 K0.2
M107
;LAYER_CHANGE
;Z:0.2
;HEIGHT:0.2
G1 E-2.5 F2700
G1 Z.4 F720
G1 X42.744 Y65.494 F9000
G1 Z.2 F720
M73 P0 R119
G1 E2.5 F1500
M204 P600
;TYPE:Skirt/Brim
;WIDTH:0.5
G1 F1200
G3 X44.204 Y64.891 I2.327 J3.566 E.06401
G1 X51.953 Y63.412 E.31782
G1 X52.933 Y63.315 E.03967
G1 X127.065 Y63.315 E2.98653
G1 X128.089 Y63.42 E.04147
G1 X135.796 Y64.891 E.31609
G3 X139.186 Y69 I-.869 J4.169 E.23184
G1 X139.178 Y111.238 E1.70163
G3 X135.796 Y115.109 I-4.246 J-.296 E.22234
G1 X128.047 Y116.588 E.31782
G1 X127.067 Y116.685 E.03967
G1 X52.934 Y116.685 E2.98657
G1 X51.911 Y116.58 E.04143
G1 X43.722 Y114.985 E.33611
G3 X40.814 Y111 I1.341 J-4.032 E.21204
G1 X40.817 Y68.882 E1.6968
G3 X42.694 Y65.527 I4.254 J.178 E.16069
M204 P1000
G1 X42.95 Y65.907 F9000
M204 P600
G1 F1200
G3 X44.29 Y65.34 I2.124 J3.155 E.05898
G1 X52.032 Y63.862 E.31753
G1 X52.944 Y63.772 E.03692
G1 X127.054 Y63.772 E2.98565
G1 X128.003 Y63.869 E.03843
M73 Q0 S120
G1 X135.71 Y65.34 E.31609
G3 X138.729 Y69 I-.775 J3.713 E.20649
G1 X138.726 Y111.097 E1.69595
G3 X135.71 Y114.66 I-3.8 J-.159 E.20247
G1 X127.968 Y116.138 E.31753
G1 X127.056 Y116.228 E.03692
G1 X52.946 Y116.228 E2.98565
G1 X51.997 Y116.131 E.03843
G1 X43.865 Y114.551 E.33374
G3 X41.271 Y111 I1.191 J-3.592 E.18904
G1 X41.274 Y68.902 E1.69599
G3 X42.9 Y65.94 I3.8 J.16 E.14105
M204 P1000
G1 E-2.5 F2700
G1 X42.9 Y65.94 Z.4 F9000
M486 S0
G1 X53.078 Y109.953
G1 Z.2 F720
G1 E2.5 F1500
M204 P600
;TYPE:Support material
G1 F1200
G3 X53.009 Y109.951 I-.074 J1.047 E.26282
M204 P1000
G1 X53.009 Y109.951 F9000
G1 X53.434 Y111.724
M204 P600
G1 F1200
G1 X53.434 Y110.532 E.04802
G2 X52.926 Y110.366 I-.435 J.472 E.02221
G1 X52.926 Y111.634 E.05108
G3 X52.418 Y111.262 I.075 J-.635 E.02652
G1 X52.418 Y110.389 E.03517
M204 P1000
G1 E-2.5 F2700
G1 Z.4 F720
G1 X54.834 Y109.543 F9000
G1 X55.238 Y109.401
G1 X65.695 Y105.739
G1 Z.2 F720
G1 E2.5 F1500
M204 P600
G1 F1200
G3 X65.303 Y110.75 I-4.73 J2.151 E.21136
G1 X56.651 Y110.75 E.34856
G1 X56.55 Y110.618 E.0067
G1 X56.55 Y105.25 E.21626
G1 X65.401 Y105.25 E.35658
G1 X65.66 Y105.68 E.02022
M204 P1000
G1 X65.66 Y105.68 F9000
G1 X65.622 Y109.67
M204 P600
G1 F1200
G1 X65.622 Y106.812 E.11514
G1 X65.319 Y105.913 E.03822
G1 X65.115 Y105.661 E.01306
G1 X65.115 Y110.266 E.18552
G1 X65.071 Y110.339 E.00343
G1 X64.607 Y110.339 E.01869
G1 X64.607 Y105.661 E.18846
G1 X64.099 Y105.661 E.02047
G1 X64.099 Y110.339 E.18846
G1 X63.591 Y110.339 E.02047
G1 X63.591 Y105.661 E.18846
G1 X63.083 Y105.661 E.02047
G1 X63.083 Y110.339 E.18846
G1 X62.575 Y110.339 E.02047
G1 X62.575 Y105.661 E.18846
G1 X62.067 Y105.661 E.02047
G1 X62.067 Y110.339 E.18846
G1 X61.56 Y110.339 E.02043
G1 X61.56 Y105.661 E.18846
G1 X61.052 Y105.661 E.02047
G1 X61.052 Y110.339 E.18846
G1 X60.544 Y110.339 E.02047
G1 X60.544 Y105.661 E.18846
G1 X60.036 Y105.661 E.02047
G1 X60.036 Y110.339 E.18846
G1 X59.528 Y110.339 E.02047
G1 X59.528 Y105.661 E.18846
G1 X59.02 Y105.661 E.02047
G1 X59.02 Y110.339 E.18846
G1 X58.512 Y110.339 E.02047
G1 X58.512 Y105.661 E.18846
G1 X58.004 Y105.661 E.02047
G1 X58.004 Y110.339 E.18846
G1 X57.497 Y110.339 E.02043
G1 X57.497 Y105.661 E.18846
G1 X56.989 Y105.661 E.02047
G1 X56.989 Y110.544 E.19672
M204 P1000
G1 E-2.5 F2700
G1 X56.989 Y110.544 Z.4 F9000
G1 X64.247 Y103.9
G1 X66.382 Y101.946
G1 X69.431 Y99.155
G1 Z.2 F720
G1 E2.5 F1500
M204 P600
G1 F1200
G3 X69.362 Y99.152 I-.122 J1.745 E.44007
M204 P1000
G1 X69.362 Y99.152 F9000
G1 X70.193 Y102.159
M204 P600
G1 F1200
G1 X70.193 Y99.904 E.09085
G1 X69.685 Y99.619 E.02347
G1 X69.685 Y102.181 E.10321
G1 X69.267 Y102.238 E.017
G1 X69.177 Y102.232 E.00363
G1 X69.177 Y99.568 E.10732
G1 X68.67 Y99.72 E.02132
G1 X68.67 Y102.08 E.09508
G1 X68.162 Y101.604 E.02805
G1 X68.162 Y99.857 E.07038
M204 P1000
G1 E-2.5 F2700
G1 X68.162 Y99.857 Z.4 F9000
G1 X72.28 Y101.754
G1 X75.897 Y104.946
G1 X75.966 Y105.089
G1 X76.047 Y105.238
G1 X76.11 Y105.343
G1 X76.194 Y105.479
G1 X76.289 Y105.618
G1 X76.362 Y105.717
G1 X76.458 Y105.844
G1 X76.566 Y105.973
G1 X76.649 Y106.064
G1 X76.758 Y106.182
G1 X76.878 Y106.299
G1 X76.969 Y106.381
G1 X77.089 Y106.487
G1 X77.22 Y106.592
G1 X77.319 Y106.665
G1 X77.45 Y106.759
G1 X77.59 Y106.85
G1 X77.695 Y106.913
G1 X77.835 Y106.993
G1 X77.983 Y107.069
G1 X78.094 Y107.122
G1 X78.242 Y107.188
G1 X78.396 Y107.249
G1 X78.512 Y107.29
G1 X78.666 Y107.342
G1 X78.825 Y107.387
G1 X78.944 Y107.417
G1 X79.103 Y107.453
G1 X88.423 Y109.191
G1 X90.078 Y109.953
G1 Z.2 F720
G1 E2.5 F1500
M204 P600
G1 F1200
G3 X90.009 Y109.951 I-.074 J1.047 E.26282
M204 P1000
G1 X90.009 Y109.951 F9000
G1 X90.508 Y111.674
M204 P600
G1 F1200
G1 X90.508 Y110.613 E.04274
G2 X90 Y110.362 I-.509 J.389 E.02365
G1 X90 Y111.638 E.05141
G3 X89.492 Y111.386 I.001 J-.64 E.02367
G1 X89.492 Y110.326 E.0427
M204 P1000
G1 E-2.5 F2700
G1 X89.492 Y110.326 Z.4 F9000
G1 X91.753 Y109.36
G1 X112.422 Y100.526
G1 X115.63 Y99.155
G1 Z.2 F720
G1 E2.5 F1500
M204 P600
G1 F1200
G3 X115.562 Y99.152 I-.121 J1.745 E.44011
M204 P1000
G1 X115.562 Y99.152 F9000
G1 X116.409 Y102.148
M204 P600
G1 F1200
G1 X116.409 Y99.918 E.08984
G1 X115.901 Y99.624 E.02365
G1 X115.901 Y102.176 E.10281
G1 X115.467 Y102.238 E.01766
G1 X115.393 Y102.234 E.00299
G1 X115.393 Y99.566 E.10748
G1 X114.885 Y99.711 E.02128
G1 X114.885 Y102.089 E.0958
G1 X114.378 Y101.628 E.02761
G1 X114.378 Y99.84 E.07203
M204 P1000
G1 E-2.5 F2700
G1 X114.378 Y99.84 Z.4 F9000
G1 X118.003 Y102.727
G1 X125.79 Y108.928
G1 X127.078 Y109.953
G1 Z.2 F720
G1 E2.5 F1500
M204 P600
G1 F1200
G3 X127.009 Y109.951 I-.074 J1.047 E.26282
M204 P1000
G1 X127.009 Y109.951 F9000
G1 X127.582 Y111.611
M204 P600
G1 F1200
G1 X127.582 Y110.738 E.03517
G2 X127.074 Y110.366 I-.584 J.264 E.02652
G1 X127.074 Y111.634 E.05108
G3 X126.566 Y111.468 I-.073 J-.637 E.02221
G1 X126.566 Y110.276 E.04802
M204 P1000
G1 E-2.5 F2700
G1 X126.566 Y110.276 Z.4 F9000
G1 X126.257 Y108.718
G1 X120.15 Y77.917
G1 X119.225 Y73.255
G1 Z.2 F720
G1 E2.5 F1500
M204 P600
G1 F1200
G3 X119.157 Y73.251 I-.118 J1.745 E.44011
M204 P1000
G1 X119.157 Y73.251 F9000
G1 X119.964 Y76.279
M204 P600
G1 F1200
G1 X119.964 Y73.978 E.0927
G1 X119.456 Y73.71 E.02314
G1 X119.456 Y76.29 E.10394
G1 X119.132 Y76.338 E.0132
G1 X118.948 Y76.33 E.00742
G1 X118.948 Y73.67 E.10716
G1 X118.44 Y73.836 E.02153
G1 X118.44 Y76.164 E.09379
G1 X117.933 Y75.654 E.02897
G1 X117.933 Y73.99 E.06704
M204 P1000
G1 E-2.5 F2700
G1 X117.933 Y73.99 Z.4 F9000
G1 X116.229 Y73.831
G1 X115.7 Y74.797
G1 X116.3 Y78.31
G1 X116.3 Y82.388
G1 X115.7 Y96.631
G1 X115.628 Y97.066
G1 X115.263 Y97.963
G1 X112.816 Y98.4
G1 X72.144 Y98.4
G1 X67.68 Y98.149
G1 X67.184 Y98.277
G1 X66.688 Y98.4
G1 X64.3 Y98.4
G1 X63 Y71.4
G1 X55.103 Y68.144
G1 X53.026 Y67.951
G1 Z.2 F720
G1 E2.5 F1500
M204 P600
G1 F1200
G3 X52.958 Y67.951 I-.022 J1.049 E.26287
M204 P1000
G1 X52.958 Y67.951 F9000
G1 X53.434 Y69.724
M204 P600
G1 F1200
G1 X53.434 Y68.532 E.04802
G2 X52.926 Y68.366 I-.435 J.471 E.02221
G1 X52.926 Y69.634 E.05108
G3 X52.418 Y69.261 I.075 J-.635 E.02655
G1 X52.418 Y68.389 E.03513
M204 P1000
G1 E-2.5 F2700
G1 Z.4 F720
G1 X55.284 Y69.736 F9000
G1 X64.3 Y98.4
G1 X66.688 Y98.4
G1 X70.656 Y98.092
G1 X71.648 Y98.345
G1 X72.144 Y98.4
G1 X112.816 Y98.4
G1 X115.263 Y97.963
G1 X115.27 Y97.94
G1 X115.33 Y97.96
G1 Z.2 F720
G1 E2.5 F1500
M204 P600
;TYPE:External perimeter
G1 F1200
G2 X115.543 Y96.356 I-12.845 J-2.52 E.06523
G1 X115.55 Y83.387 E.52248
G1 X116.15 Y82.347 E.04837
G1 X116.15 Y78.372 E.16014
G1 X115.55 Y77.772 E.03418
G1 X115.55 Y71.25 E.26275
G1 X116.85 Y71.25 E.05237
G1 X116.85 Y67.95 E.13295
G1 X118.287 Y67.947 E.05789
G2 X119.71 Y67.832 I-.389 J-13.738 E.05754
G3 X121.088 Y67.922 I.192 J7.649 E.05571
G1 X121.571 Y67.946 E.01948
G1 X124.65 Y67.95 E.12404
G3 X125.379 Y67.032 I2.951 J1.596 E.04747
G3 X129.121 Y67.585 I1.619 J1.98 E.17152
G1 X129.338 Y67.951 E.01714
G1 X132.553 Y67.939 E.12952
G1 X133.058 Y67.906 E.02039
G3 X135.282 Y67.981 I.927 J5.49 E.09026
G3 X136.05 Y69.022 I-.326 J1.045 E.05576
G1 X136.05 Y110.982 E1.69043
G3 X135.097 Y112.044 I-1.068 E.06295
G1 X130.573 Y112.054 E.18226
G2 X129.381 Y112.142 I.504 J15.076 E.04817
G3 X128.009 Y113.426 I-2.488 J-1.283 E.0772
G3 X124.89 Y112.566 I-1.004 J-2.443 E.14028
G1 X124.613 Y112.14 E.02047
G2 X122.414 Y112.05 I-1.789 J16.727 E.08873
G1 X94.084 Y112.05 E1.14132
G2 X92.384 Y112.141 I-.004 J15.884 E.06862
G3 X91.779 Y112.934 I-3.308 J-1.898 E.0403
G3 X87.89 Y112.566 I-1.778 J-1.944 E.17728
G1 X87.613 Y112.14 E.02047
G2 X86.413 Y112.054 I-1.696 J15.238 E.04848
G1 X75.969 Y112.051 E.42075
G2 X74.45 Y112.195 I-.116 J6.867 E.0616
G1 X73.975 Y112.229 E.01919
G1 X55.489 Y112.218 E.74474
G2 X55.077 Y112.645 I1.227 J1.596 E.02399
G3 X53.003 Y113.628 I-2.126 J-1.806 E.09529
G3 X50.89 Y112.566 I.014 J-2.661 E.09872
G1 X50.614 Y112.141 E.02042
G2 X49.425 Y112.054 I-1.683 J14.948 E.04804
G1 X45.018 Y112.05 E.17754
G3 X43.95 Y110.978 I-.003 J-1.065 E.0678
G1 X43.95 Y69.017 E1.69047
G3 X45.016 Y67.95 I1.058 J-.009 E.06764
M73 P0 R118
G1 X49.425 Y67.946 E.17762
G2 X50.614 Y67.86 I-.495 J-15.064 E.04804
G3 X51.757 Y66.685 I2.592 J1.379 E.06693
G3 X53.517 Y66.423 I1.253 J2.38 E.07306
G3 X55.11 Y67.434 I-.544 J2.619 E.07768
M73 P1 R118
G1 X55.38 Y67.858 E.02025
G2 X56.533 Y67.946 I1.649 J-14.086 E.0466
G1 X63.15 Y67.95 E.26658
G1 X63.15 Y71.25 E.13295
M73 Q1 S120
G1 X64.45 Y71.25 E.05237
G1 X64.45 Y77.772 E.26275
G1 X63.85 Y78.372 E.03418
G1 X63.85 Y82.347 E.16014
G1 X64.45 Y83.387 E.04837
G1 X64.45 Y98.251 E.59882
G2 X66.916 Y98.213 I.668 J-37.217 E.09938
G1 X67.902 Y98.05 E.04026
G1 X70.839 Y98.058 E.11832
G2 X71.839 Y98.224 I1.856 J-8.072 E.04086
G1 X72.849 Y98.25 E.0407
G2 X80.309 Y98.2 I2.228 J-226.785 E.30056
G1 X83.288 Y98.25 E.12003
G1 X112.119 Y98.25 E1.16151
G2 X114.126 Y98.05 I.112 J-9.062 E.08142
G1 X115.312 Y98.05 E.04778
G2 X115.319 Y98.018 I-12.827 J-2.61 E.00132
M204 P1000
G1 X115.391 Y97.625 F9000
G1 E-2.5 F2700
G1 Z.4 F720
G1 X115.374 Y97.619 F9000
G1 X115.263 Y97.963
G1 X112.816 Y98.4
G1 X70.555 Y98.414
G1 X70.419 Y98.379
G1 X70.285 Y98.349
G1 X70.15 Y98.323
G1 X70.017 Y98.302
G1 X69.883 Y98.284
G1 X69.751 Y98.27
G1 X69.63 Y98.261
G1 X69.618 Y98.26
G1 X69.498 Y98.254
G1 X69.366 Y98.25
G1 X69.234 Y98.25
G1 X69.102 Y98.254
G1 X68.97 Y98.261
G1 X68.837 Y98.271
G1 X68.704 Y98.286
G1 X68.571 Y98.304
G1 X68.437 Y98.326
G1 X68.302 Y98.352
G1 X68.167 Y98.383
G1 X68.031 Y98.418
G1 X67.894 Y98.459
G1 X67.757 Y98.505
G1 X67.619 Y98.556
G1 X67.481 Y98.613
G1 X67.343 Y98.677
G1 X67.206 Y98.746
G1 X67.068 Y98.823
G1 X66.932 Y98.907
G1 X66.916 Y98.922
G1 X66.832 Y99.024
G1 X66.742 Y99.149
G1 X66.658 Y99.278
G1 X66.58 Y99.412
G1 X66.512 Y99.543
G1 X66.451 Y99.678
G1 X66.396 Y99.815
G1 X66.347 Y99.954
G1 X66.306 Y100.096
G1 X66.271 Y100.24
G1 X66.243 Y100.385
G1 X66.24 Y100.406
G1 X66.223 Y100.522
G1 X65.92 Y100.478
G1 Z.2 F720
G1 E2.5 F1500
M204 P600
;TYPE:Perimeter
G1 F1200
G2 X66.488 Y102.825 I3.424 J.413 E.09939
G2 X67.224 Y103.596 I2.809 J-1.946 E.04312
G1 X54.892 Y103.593 E.49682
G1 X54.902 Y109.106 E.2221
G1 X54.795 Y108.977 E.00675
G2 X50.295 Y111.079 I-1.795 J2.026 E.25341
G2 X50.41 Y111.662 I2.557 J-.2 E.02399
G1 X49.435 Y111.597 E.03937
G1 X45.042 Y111.593 E.17698
G3 X44.407 Y110.946 I-.022 J-.614 E.04108
G1 X44.407 Y69.039 E1.68829
G3 X45.037 Y68.407 I.605 J-.027 E.04043
G1 X49.435 Y68.403 E.17718
G1 X50.4 Y68.339 E.03896
G1 X50.301 Y68.834 E.02034
G2 X53.743 Y71.607 I2.709 J.161 E.20811
G2 X55.7 Y68.844 I-.764 J-2.617 E.14718
G1 X55.6 Y68.339 E.02074
G1 X56.522 Y68.403 E.03723
G1 X62.693 Y68.407 E.24861
G1 X62.693 Y71.707 E.13295
G1 X63.993 Y71.707 E.05237
G1 X63.993 Y77.583 E.23672
G1 X63.393 Y78.183 E.03418
G1 X63.393 Y82.47 E.17271
G1 X63.993 Y83.509 E.04834
G1 X63.993 Y98.709 E.61236
G1 X66.413 Y98.701 E.09749
G1 X66.758 Y98.681 E.01392
G2 X66.003 Y100.032 I2.137 J2.079 E.06307
G2 X65.927 Y100.419 I3.341 J.859 E.0159
M204 P1000
G1 E-2.5 F2700
G1 X65.927 Y100.419 Z.4 F9000
G1 X66.232 Y100.462
G1 X64.3 Y98.4
G1 X55.048 Y67.481
G1 X53.001 Y66.45
G1 X50.885 Y67.576
G1 X50.654 Y67.951
G1 X50.94 Y68.221
G1 Z.2 F720
G1 E2.5 F1500
M204 P600
;TYPE:External perimeter
G1 F1200
G3 X51.151 Y67.861 I1.839 J.84 E.01684
G3 X52.412 Y66.909 I1.906 J1.212 E.06503
G3 X54.437 Y67.371 I.575 J2.148 E.08706
G3 X55.059 Y68.216 I-2.385 J2.406 E.04244
G3 X55.242 Y68.881 I-1.975 J.901 E.0279
G3 X50.848 Y69.662 I-2.246 J.116 E.26228
G3 X50.916 Y68.276 I1.931 J-.601 E.05706
M204 P1000
G1 X51.112 Y67.927 F9000
G1 E-2.5 F2700
G1 Z.4 F720
G1 X50.788 Y67.73 F9000
G1 X52.749 Y66.463
G1 X54.901 Y67.301
G1 X64.3 Y93.949
G1 X64.3 Y98.4
G1 X66.688 Y98.4
G1 X70.656 Y98.092
G1 X71.648 Y98.345
G1 X72.144 Y98.4
G1 X112.816 Y98.4
G1 X115.263 Y97.963
G1 X132.8 Y68.059
G1 X132.923 Y68.034
G1 X133.035 Y68.573
G1 Z.2 F720
G1 E2.5 F1500
M204 P600
G1 F1200
G3 X133.603 Y68.313 I.807 J1.014 E.02542
G3 X134.213 Y68.288 I.418 J2.685 E.02465
G3 X135.299 Y68.965 I-.057 J1.3 E.0539
G3 X132.556 Y69.745 I-1.302 J.635 E.20379
G3 X132.989 Y68.612 I1.286 J-.158 E.05085
M204 P1000
G1 X133.332 Y68.406 F9000
G1 E-2.5 F2700
G1 Z.4 F720
G1 X133.241 Y67.968 F9000
G1 X115.7 Y84.057
G1 X115.7 Y96.031
G1 X115.7 Y96.577
G1 X115.987 Y96.577
G1 Z.2 F720
G1 E2.5 F1500
M204 P600
;TYPE:Perimeter
G1 F1200
G2 X116 Y96.372 I-9.111 J-.683 E.00828
G1 X116.007 Y83.509 E.51821
G1 X116.607 Y82.47 E.04834
G1 X116.607 Y78.183 E.17271
G1 X116.007 Y77.583 E.03418
G1 X116.007 Y76.428 E.04653
G2 X117.923 Y78.199 I3.115 J-1.448 E.10782
G2 X121.527 Y77.393 I1.168 J-3.234 E.15705
G2 X119.658 Y71.636 I-2.434 J-2.392 E.29989
G2 X116.905 Y72.393 I-.538 J3.431 E.11854
M73 Q1 S119
G2 X116.007 Y73.579 I2.202 J2.6 E.06042
G1 X116.007 Y71.707 E.07542
G1 X117.307 Y71.707 E.05237
G1 X117.307 Y68.406 E.13299
G1 X118.552 Y68.395 E.05016
G2 X118.284 Y70.438 I1.398 J1.222 E.088
G2 X121.706 Y68.75 I1.713 J-.839 E.24191
G1 X121.45 Y68.397 E.01757
G1 X124.898 Y68.408 E.13891
G3 X125.512 Y67.53 I4.981 J2.83 E.04323
G3 X127.307 Y66.932 I1.497 J1.497 E.07902
G3 X128.742 Y67.843 I-.325 J2.098 E.07045
G1 X129.078 Y68.408 E.02648
G1 X132.551 Y68.396 E.13992
G2 X132.284 Y70.438 I1.398 J1.222 E.08795
G2 X135.593 Y70.646 I1.714 J-.842 E.16176
G1 X135.593 Y110.958 E1.62404
G3 X135.042 Y111.587 I-.611 J.021 E.0371
